symbolic/32x32/apps/ktikz.svg

<svg xmlns="http://www.w3.org/2000/svg" width="32" height="32" version="1">
 <path fill="#e4e4e4" d="m27 28.5v-25c0-0.831-0.669-1.5-1.5-1.5h-19c-0.831 0-1.5 0.669-1.5 1.5v25c0 0.831 0.669 1.5 1.5 1.5h19c0.831 0 1.5-0.669 1.5-1.5z"/>
 <path fill="#fff" opacity=".1" d="m6.5 2c-0.831 0-1.5 0.669-1.5 1.5v1c0-0.831 0.669-1.5 1.5-1.5h19c0.831 0 1.5 0.669 1.5 1.5v-1c0-0.831-0.669-1.5-1.5-1.5z"/>
 <path opacity=".2" d="m5 28.5v1c0 0.831 0.669 1.5 1.5 1.5h19c0.831 0 1.5-0.669 1.5-1.5v-1c0 0.831-0.669 1.5-1.5 1.5h-19c-0.831 0-1.5-0.669-1.5-1.5z"/>
 <g transform="translate(3)">
  <circle fill="#38458f" cx="21" cy="23" r="8"/>
 </g>
 <path style="fill:#ffffff" d="M 26.408203 19 C 26.286839 19 26.164547 19.046385 26.070312 19.140625 L 25.140625 20.078125 L 26.921875 21.859375 L 27.859375 20.929688 C 28.047855 20.741218 28.047855 20.444339 27.859375 20.255859 L 26.744141 19.140625 C 26.649901 19.046385 26.529567 19 26.408203 19 z M 24.433594 20.785156 L 20 25.21875 L 20 27 L 21.78125 27 L 26.214844 22.566406 L 24.433594 20.785156 z"/>
 <path fill-rule="evenodd" opacity=".2" d="m31.979 23.424a8 8 0 0 1 -7.979 7.576 8 8 0 0 1 -7.979 -7.424 8 8 0 0 0 -0.021 0.424 8 8 0 0 0 8 8 8 8 0 0 0 8 -8 8 8 0 0 0 -0.02148 -0.57617z"/>
</svg>

<svg xmlns="http://www.w3.org/2000/svg" width="32" height="32" version="1"><path fill="#e4e4e4" d="M27 28.5v-25c0-.831-.669-1.5-1.5-1.5h-19C5.669 2 5 2.669 5 3.5v25c0 .831.669 1.5 1.5 1.5h19c.831 0 1.5-.669 1.5-1.5z"/><path fill="#fff" opacity=".1" d="M6.5 2C5.669 2 5 2.669 5 3.5v1C5 3.669 5.669 3 6.5 3h19c.831 0 1.5.669 1.5 1.5v-1c0-.831-.669-1.5-1.5-1.5z"/><path opacity=".2" d="M5 28.5v1c0 .831.669 1.5 1.5 1.5h19c.831 0 1.5-.669 1.5-1.5v-1c0 .831-.669 1.5-1.5 1.5h-19c-.831 0-1.5-.669-1.5-1.5z"/><circle fill="#38458f" cx="21" cy="23" r="8" transform="translate(3)"/><path style="fill:#fff" d="M26.408 19a.476.476 0 0 0-.338.14l-.93.938 1.782 1.781.937-.93a.472.472 0 0 0 0-.673l-1.115-1.115a.472.472 0 0 0-.336-.141zm-1.974 1.785L20 25.22V27h1.781l4.434-4.434-1.781-1.78z"/><path fill-rule="evenodd" opacity=".2" d="M31.979 23.424A8 8 0 0 1 24 31a8 8 0 0 1-7.979-7.424A8 8 0 0 0 16 24a8 8 0 0 0 8 8 8 8 0 0 0 8-8 8 8 0 0 0-.021-.576z"/></svg>
